remix/Finance/price-tag-fill.svg

<svg viewBox="0 0 24 24" fill="currentColor" xmlns="http://www.w3.org/2000/svg"><path d="M3.00488 6.99972L11.4502 1.36952C11.7861 1.14559 12.2237 1.14559 12.5596 1.36952L21.0049 6.99972V20.9997C21.0049 21.552 20.5572 21.9997 20.0049 21.9997H4.00488C3.4526 21.9997 3.00488 21.552 3.00488 20.9997V6.99972ZM12.0049 10.9997C13.1095 10.9997 14.0049 10.1043 14.0049 8.99972C14.0049 7.89515 13.1095 6.99972 12.0049 6.99972C10.9003 6.99972 10.0049 7.89515 10.0049 8.99972C10.0049 10.1043 10.9003 10.9997 12.0049 10.9997Z"/></svg>

<svg viewBox="0 0 24 24" xmlns="http://www.w3.org/2000/svg"><path fill="none" d="M0 0h24v24H0Z"/><path d="M3 7l8.445-5.63v0c.33-.23.77-.23 1.11 0L21 7v14 0c0 .55-.45 1-1 1H4v0c-.56 0-1-.45-1-1V7Zm9 4v0c1.1 0 2-.9 2-2 0-1.11-.9-2-2-2v0c-1.11 0-2 .89-2 2 0 1.1.89 2 2 2Z"/></svg>
